X:180
T:The Boys of Blue Hill
M:C|
L:1/8
K:D
dB |BAFA DAFA|BA (3Bcd e2 de|fagf egfe|dfed B2 (dB)|
BAFA DAFA|BA (3Bcd e2 de|faaf egfe| d2 d2 d2 :|
|: (fg)|afdf a2 gf|efga b2 ag|fagf egfe|dfed B2 (dB)|
BAFA DAFA|BA (3Bcd e2 de|faaf egfe |d2 d2 d2 :|
